material/.icons/material/arrow-split-vertical.svg

<svg xmlns="http://www.w3.org/2000/svg" viewBox="0 0 24 24"><path d="M18 16v-3h-3v9h-2V2h2v9h3V8l4 4-4 4M2 12l4 4v-3h3v9h2V2H9v9H6V8l-4 4z"/></svg>

<?xml version="1.0" encoding="UTF-8"?><!DOCTYPE svg PUBLIC "-//W3C//DTD SVG 1.1//EN" "http://www.w3.org/Graphics/SVG/1.1/DTD/svg11.dtd"><svg xmlns="http://www.w3.org/2000/svg" xmlns:xlink="http://www.w3.org/1999/xlink" version="1.1" id="mdi-arrow-split-vertical" width="24" height="24" viewBox="0 0 24 24"><path d="M18,16V13H15V22H13V2H15V11H18V8L22,12L18,16M2,12L6,16V13H9V22H11V2H9V11H6V8L2,12Z" /></svg>
